packages/flutter/assets/icons/megaphone.svg

<?xml version="1.0" encoding="UTF-8"?>
<svg width="24px" height="24px" viewBox="0 0 24 24" version="1.1" xmlns="http://www.w3.org/2000/svg" xmlns:xlink="http://www.w3.org/1999/xlink">
    <title>megaphone</title>
    <g id="megaphone" stroke="none" stroke-width="1" fill="none" fill-rule="evenodd">
        <path d="M15,16.1463921 C13.5429061,15.3936863 11.787248,14.7537025 9.73302586,14.2264407 L11.0604357,17.5441581 C11.3121903,18.3334053 10.8764664,19.1773039 10.0872192,19.4290585 C9.98896578,19.4603994 9.88787445,19.481482 9.78556131,19.4920547 L9.63137725,19.5 L8.70880042,19.5 C8.12087715,19.5 7.59212659,19.1572768 7.35375244,18.6463689 L5.24730255,13.3254154 C5.11714353,13.3053598 4.98614226,13.2856222 4.85429876,13.2662026 C4.36357965,13.1939427 4,12.7728877 4,12.2768768 L4,12 L4,12 L3,12 C2.44771525,12 2,11.5522847 2,11 L2,10 C2,9.44771525 2.44771525,9 3,9 L4,9 L4,8.9941297 C4,8.50704016 4.35090097,8.09080194 4.83098337,8.00847877 C9.10400979,7.27575232 12.493682,6.321408 15,5.14544582 C19,3.26864937 19,18.2127126 15,16.1463921 Z M6.39787362,13.5148311 L8.23702104,18.1656026 C8.29729251,18.3373079 8.44487524,18.460341 8.61950854,18.4919891 L8.70880042,18.5 L9.63137725,18.5 C9.68294271,18.5 9.73419786,18.4920233 9.78332456,18.4763528 C10.0171756,18.4017589 10.1579176,18.1712093 10.1359388,17.9599836 L10.1199332,17.8820222 L8.55361843,13.971646 L8.59781601,13.9533719 C7.89598144,13.7953066 7.16266731,13.6491263 6.39787362,13.5148311 Z M19.6441068,14.1649641 L19.7313175,14.1881335 L21.6107027,14.8721738 C21.8701916,14.9666201 22.0039852,15.2535413 21.9095389,15.5130302 C21.8255867,15.7436871 21.5895555,15.875029 21.3558932,15.8350359 L21.2686825,15.8118665 L19.3892973,15.1278262 C19.1298084,15.0333799 18.9960148,14.7464587 19.0904611,14.4869698 C19.1744133,14.2563129 19.4104445,14.124971 19.6441068,14.1649641 Z M15.4247672,6.05074844 C12.9501911,7.21181733 9.68308954,8.15376516 5.61605009,8.88585271 L5,8.9941297 L5,12.2768768 L5.58949016,12.3666525 C9.47326136,12.9779588 12.634721,13.8746833 15.0789827,15.0671855 L15.4589594,15.2579348 C15.8087124,15.4386103 16.0142202,15.3250561 16.3423695,14.6155287 C16.7555727,13.7220968 17,12.2716779 17,10.7169905 C17,9.16000255 16.7550439,7.69483948 16.3389576,6.77545928 C16.0015362,6.02989614 15.7679199,5.8897415 15.4247672,6.05074844 Z M4,10 L3,10 L3,11 L4,11 L4,10 Z M21.5,10 C21.7761424,10 22,10.2238576 22,10.5 C22,10.7454599 21.8231248,10.9496084 21.5898756,10.9919443 L21.5,11 L19.5,11 C19.2238576,11 19,10.7761424 19,10.5 C19,10.2545401 19.1768752,10.0503916 19.4101244,10.0080557 L19.5,10 L21.5,10 Z M21.9095389,5.48696979 C21.9934912,5.71762663 21.8971058,5.96995832 21.692403,6.08951704 L21.6107027,6.12782617 L19.7313175,6.81186645 C19.4718285,6.90631271 19.1849073,6.77251917 19.0904611,6.51303021 C19.0065088,6.28237337 19.1028942,6.03004168 19.307597,5.91048296 L19.3892973,5.87217383 L21.2686825,5.18813355 C21.5281715,5.09368729 21.8150927,5.22748083 21.9095389,5.48696979 Z" id="Rectangle" fill="#303846"></path>
    </g>
</svg>

<svg xmlns="http://www.w3.org/2000/svg" width="24" height="24" viewBox="0 0 24 24"><path fill-rule="evenodd" d="M15 16.146c-1.457-.752-3.213-1.392-5.267-1.92l1.327 3.318a1.5 1.5 0 0 1-1.274 1.948l-.155.008H8.71a1.498 1.498 0 0 1-1.355-.854l-2.107-5.32-.393-.06a1 1 0 0 1-.854-.99V12H3a1 1 0 0 1-1-1v-1a1 1 0 0 1 1-1h1v-.006a1 1 0 0 1 .831-.986C9.104 7.276 12.494 6.321 15 5.145c4-1.876 4 13.068 0 11.001zm-8.602-2.631l1.839 4.65a.5.5 0 0 0 .383.327l.089.008h.922a.506.506 0 0 0 .505-.54l-.016-.078-1.566-3.91.044-.019a47.08 47.08 0 0 0-2.2-.438zm13.246.65l.087.023 1.88.684a.5.5 0 0 1-.255.963l-.087-.023-1.88-.684a.5.5 0 0 1 .255-.963zm-4.22-8.114c-2.474 1.16-5.74 2.103-9.808 2.835L5 8.994v3.283l.59.09c3.883.611 7.045 1.508 9.489 2.7l.38.19c.35.182.555.068.883-.641.414-.894.658-2.344.658-3.899 0-1.557-.245-3.022-.661-3.942-.337-.745-.571-.885-.914-.724zM4 10H3v1h1v-1zm17.5 0a.5.5 0 0 1 .09.992L21.5 11h-2a.5.5 0 0 1-.09-.992L19.5 10h2zm.41-4.513a.5.5 0 0 1-.218.603l-.081.038-1.88.684a.5.5 0 0 1-.423-.902l.081-.038 1.88-.684a.5.5 0 0 1 .64.299z"/></svg>
